dist/svg/license.svg

<!-- Generated by Trend Micro Style Portal -->
<svg version="1.1" xmlns="http://www.w3.org/2000/svg" width="16" height="16" viewBox="0 0 16 16">
  <title>license</title>
  <path fill="rgb(34,34,34)" d="M2 3h7v1h-7zM2 5h5v1h-5zM2 7h4v1h-4zM1 1h12v2h1v-2.1c0-0.001 0-0.002 0-0.004 0-0.494-0.399-0.894-0.892-0.896h-12.208c-0.001 0-0.002 0-0.004 0-0.494 0-0.894 0.399-0.896 0.892v11.208c0 0.001-0 0.002-0 0.004 0 0.494 0.399 0.894 0.892 0.896h8.108v-1h-8zM12 4c-0.003 0-0.006-0-0.009-0-2.204 0-3.991 1.787-3.991 3.991 0 1.471 0.796 2.757 1.981 3.449l0.019 0.010v4.55l2-2 2 2v-4.55c1.204-0.702 2-1.988 2-3.459 0-2.204-1.787-3.991-3.991-3.991-0.003 0-0.006 0-0.009 0h0zM12 11c-1.657 0-3-1.343-3-3s1.343-3 3-3c1.657 0 3 1.343 3 3v0c0 1.657-1.343 3-3 3v0zM12 6c1.105 0 2 0.895 2 2s-0.895 2-2 2c-1.105 0-2-0.895-2-2v0c0-1.105 0.895-2 2-2v0z"></path>
</svg>

<svg width="16" height="16" viewBox="0 0 16 16" fill="rgb(34, 34, 34)" xmlns="http://www.w3.org/2000/svg"><title>license</title><path d="M2 3H9V4H2V3ZM2 5H7V6H2V5ZM2 7H6V8H2V7ZM1 1H13V3H14V0.9C14 0.899 14 0.898 14 0.896C14 0.402 13.601 0.002 13.108 0H0.9C0.899 0 0.898 0 0.896 0C0.402 0 0.002 0.399 0 0.892V12.1C0 12.101 0 12.102 0 12.104C0 12.598 0.399 12.998 0.892 13H9V12H1V1ZM12 4C11.997 4 11.994 4 11.991 4C9.787 4 8 5.787 8 7.991C8 9.462 8.796 10.748 9.981 11.44L10 11.45V16L12 14L14 16V11.45C15.204 10.748 16 9.462 16 7.991C16 5.787 14.213 4 12.009 4C12.006 4 12.003 4 12 4ZM12 11C10.343 11 9 9.657 9 8C9 6.343 10.343 5 12 5C13.657 5 15 6.343 15 8C15 9.657 13.657 11 12 11ZM12 6C13.105 6 14 6.895 14 8C14 9.105 13.105 10 12 10C10.895 10 10 9.105 10 8C10 6.895 10.895 6 12 6Z" fill="rgb(34, 34, 34)" fill-opacity="1.00"/></svg>
